icon_svgs/Telegram.svg

<svg height="20" viewBox="0 0 20 17" fill="none" xmlns="http://www.w3.org/2000/svg"><path d="M19.9434 1.52996L16.9243 15.7574C16.7018 16.7662 16.1009 17.011 15.2627 16.5362L10.6637 13.1463L8.44574 15.2826C8.20095 15.5274 7.99325 15.7351 7.51851 15.7351L7.84489 11.0545L16.368 3.35475C16.7389 3.02836 16.2864 2.84292 15.7968 3.1693L5.26349 9.80084L0.723777 8.38403C-0.262794 8.07249 -0.285048 7.39746 0.931477 6.92272L18.6675 0.0834836C19.4909 -0.21323 20.2104 0.283765 19.9434 1.52996Z" fill="#959DA5"/></svg>

<svg height="20" viewBox="0 0 20 17" fill="none" xmlns="http://www.w3.org/2000/svg"><path d="M19.943 1.53l-3.019 14.227c-.222 1.01-.823 1.254-1.661.78l-4.6-3.39-2.217 2.136c-.245.244-.453.452-.927.452l.326-4.68 8.523-7.7c.37-.327-.082-.512-.571-.186L5.263 9.801.723 8.384c-.986-.312-1.008-.987.208-1.461L18.667.083c.824-.296 1.543.2 1.276 1.447z" fill="#959DA5"/></svg>
